X: 21704
T: TAK YOUR AULD CLOAK ABOUT YE
O: Very old air.
Q: "Slow."
%R: air
B: W. Hamilton "Universal Tune-Book" Vol. 2 Glasgow 1846 p.170 #4
S: http://s3-eu-west-1.amazonaws.com/itma.dl.printmaterial/book_pdfs/hamiltonvol2web.pdf
Z: 2016 John Chambers <jc:trillian.mit.edu>
M: 3/4
L: 1/16
K: Gm
% - - - - - - - - - - - - - - - - - - - - - - - - -
G2 |\
B3c B4 z2d2 | c3B A4 z2A2 |\
B3A G4 z2A2 | ^F3=E D4 z2A2 |\
B3c B6 d2 | c3B A6 {Bc}d2 |\
B3A G6 A2 | ^F3G D6 |]
A2 |\
B3F F4 z2E2 | D3F F4 z2F2 |\
D3G G4 z2A2 | B3c d4 z2c2 |\
B3B B6 B2 | c2d2 f4 z2f2 |\
(gf)(ed) {cd}e4 d3c | B3A G6 |]
% - - - - - - - - - - - - - - - - - - - - - - - - -

%%sep 1 1 500
%%sep 1 1 500

